X: 9876
T: Dermot McLoughlin's
R: barndance
M: 4/4
K: Dmajor
|:F>G|A>FA>d f2 f2|e>^de>g B2 e>=d|c2 E>F G>FG>A|(3BcB A^G A>=GF>G|
A>F (3FAd f2 f2|e>^de>g B2 e>=d|c2 e>f g>eB>c|d2 f2 d2:|
K: AMaj
|:(3e^de|c>AE>A c2 c2|B>^AB>d f2 ^e>f|g>fd>B G2 (3EFG|(3AcB (3AGF E>e^d>e|
c>A (3CEA c2 c2|B>^A (3Bcd f2 ^e>f|g>fd>B G2 (3EFG|A2 c2 A2:|

